!!!COM:	Bach, Johann Sebastian
!!!OMV:	O Gott, du frommer Gott
!!!OTL:	O Gott, du frommer Gott
**kern	**fb	**kern	**kern	**kern	**kern
*part5	*part5	*part4	*part3	*part2	*part1
*staff5	*	*staff4	*staff3	*staff2	*staff1
*I"Continuo	*	*I"Voice	*I"Voice	*I"Voice	*I"Voice
*I'Cont.	*	*I'V	*I'V	*I'V	*I'V
*clefF4	*	*clefF4	*clefGv2	*clefG2	*clefG2
*Trd0c0	*	*	*	*	*
*k[]	*	*k[]	*k[]	*k[]	*k[]
*M4/4	*	*M4/4	*M4/4	*M4/4	*M4/4
4C	.	4C	4e	4g	4cc
=2	=2	=2	=2	=2	=2
4G	8	4G	4.d	8gL	4b
.	7	.	.	8fJ	.
4G	5	4G	.	4e	4a
.	.	.	8c	.	.
4D#X	6	4D#X	4B	4f#X	8bL
.	5	.	.	.	8aJ
4E	6 8	4E	8cL	8eL	4g
.	5 7	.	8BJ	8dJ	.
=3	=3	=3	=3	=3	=3
8FL	5	8FL	8AL	4c	4a
8EJ	.	8EJ	8GJ	.	.
4D	6	4D	4F	4d	4b
4C;	.	4C;	4G;	4e;	4cc;
8AAL	.	8AAL	4A	4e	4cc
8BBJ	.	8BBJ	.	.	.
=4	=4	=4	=4	=4	=4
8CL	6	8CL	8AL	4e	4cc
8D	.	8D	8BJ	.	.
8E	6	8E	4c	4e	4g
8FJ	.	8FJ	.	.	.
8GL	.	8GL	8BL	4d	8gL
8AJ	.	8AJ	8A	.	8f
4B-X	6 4 2	4B-X	8G	4c	8e
.	.	.	8AJ	.	8fJ
=5	=5	=5	=5	=5	=5
4E	6 -r5	4E	4.B-X	4c	4g
4F	-r4	4F	.	4c	4f
.	3	.	8A	.	.
4C;	.	4C;	4G;	4c;	4e;
8AL	5	8AL	8cL	4c	4e
8GJ	.	8GJ	8B-J	.	.
=6	=6	=6	=6	=6	=6
!!linebreak:original
8FL	.	8FL	8AL	4c	4a
8E	.	8E	8GJ	.	.
8D	.	8D	4F	8fL	4a
8CJ	.	8CJ	.	8eJ	.
8BBL	6 5	8BBL	4F	8dL	8gL
8AAJ	.	8AAJ	.	8cJ	8aJ
4GG	7	4GG	8GL	4B	4b
.	.	.	8FJ	.	.
=7	=7	=7	=7	=7	=7
4.AA	5	4.AA	8EL	8AL	8ccL
.	.	.	8CJ	8eJ	8bJ
.	6	.	4c	4f	4a
8BB	.	8BB	.	.	.
4C;	.	4C;	4c;	4e;	4g;
8CL	6	8CL	4e	4a	4cc
8DJ	.	8DJ	.	.	.
=8	=8	=8	=8	=8	=8
4.E	5 4	4.E	8eL	8aL	4b
.	3	.	8BJ	8gJ	.
.	6 4 2	.	4c	4f	4a
[8D	.	[8D	.	.	.
8DL]	6 4 3	8D]	4B	4.e	4g
[8C	.	4C	.	.	.
8C]	6	.	8AL	.	8aL
8BBJ	6	8BB	8BJ	8d	8gJ
=9	=9	=9	=9	=9	=9
8AAL	6	8AAL	8cL	4.c	8fL
16GGL	.	16BBL	8A	.	8eJ
16FFJJ	7 5	16CJJ	.	.	.
4GG	4	8GL	8D	.	4d
.	3	8GGJ	8GJ	8B	.
4CC;	.	4C;	4E;	4G;	4c;
=||	=||	=||	=||	=||	=||
*-	*-	*-	*-	*-	*-
!!!system-decoration: s1,s2,s3,s4,s5
